X:1
T:He Feedeth His Flock
T:He Feedeth His Flock
T:John Robson Sweney
T:Frances Jane (Fanny) Crosby, 1891
T:Public Domain Courtesy of the Cyber Hymnal™
T:Public Domain Courtesy of the Cyber Hymnal™
C:John Robson Sweney
Z:Public Domain
Z:Courtesy of the Cyber Hymnal™
%%score ( 1 2 ) ( 3 4 )
L:1/8
Q:1/4=92
M:6/8
K:Eb
V:1 treble 
V:2 treble 
V:3 bass 
V:4 bass 
V:1
 E | [EG]>[EA][EG] [EF]E[EF] | [EG]3 [EB]2 [Ec] | [EB]>[FA][EG] [EF][EF][CE] | [DF]3- [DF]2 [DB] | %5
w: 1.~He|feed- eth His flock like a|shep- herd, And|ten- der- ly guid- eth their|way; * His|
w: 2.~He|nev- er will leave nor for-|sake them, His|own He hath prom- ised to|keep; * So|
w: 3.~He|feed- eth His flock like a|shep- herd, And|makes them in Him to re-|joice; * They|
w: 4.~He|feed- eth His flock like a|shep- herd, And|oh, ’twill be rap- ture un-|told, * When|
 [EG]>[EA][EG] [DF]E[DF] | [EG]3 [EB]2 [Ge] | [Fd]>[Dc][DB] [DA][DF][DB] | E3- E2 || %9
w: ban- ner of mer- cy is|o’er them, Their|ref- uge by night and by|day. *|
w: great was His love and com-|pas- sion, He|laid down His life for the|sheep. *|
w: walk in the light of His|pre- sence, And|know the glad sound of His|voice. *|
w: all shall be ga- thered to-|ge- ther, At|home in the dear up- per|fold. *|
"^Refrain" [GB] | e3- [Ge][Bd][Ac] | [GB]3 [EG]3 | [Ec]>[Ed][Ee] [Ac][GB][EG] | %13
w: ||||
w: O|won- der- ful Sav-|* ior,|Pre- cious Re- deem- er and|
w: ||||
w: ||||
 [DB]3- [DB]2 [DA][EG]>[EA][EG][DF]E[DF] | [EG]3 [EB]2 [Ge] | [Fd]>[Dc][DB] [DA][DF][DB] | %16
w: |||
w: friend; * He lov- eth the faith- ful that|trust Him, And|lov- eth them un- to the|
w: |||
w: |||
 E3- E2 x |] x5 |] %18
w: ||
w: end. *||
w: ||
w: ||
V:2
 E | x4 E x | x6 | x6 | x6 | x4 E x | x6 | x6 | E3- E2 || x | G3/2 G/ G x3 | x6 | x6 | x10 E x | %14
 x6 | x6 | E3- E2 x |] x5 |] %18
V:3
 [E,G,] | [E,B,]>[E,C][E,B,] [E,A,][E,G,][E,A,] | [E,B,]3 [E,G,]2 [E,A,] | %3
 [E,G,]>[E,B,][E,B,] [C,=A,][C,A,][C,A,] | [B,,B,]3- [B,,B,]2 [B,,B,] | %5
 [E,B,]>[E,C][E,B,] [B,,A,][C,G,][B,,B,] | [E,B,]3 [E,G,]2 [E,B,] | %7
 [B,,A,]>[B,,A,][B,,F,] [B,,F,][B,,B,][B,,A,] | [E,G,]3- [E,G,]2 || [E,B,] | %10
 ([E,B,]>[E,B,][E,B,] [E,B,])[E,E][E,E] | [E,E]3 [E,B,]3 | A,>[A,B,][A,C] [E,E][E,E][E,B,] | %13
 [B,,B,]3- [B,,B,]2 [B,,B,] x6 | [E,B,]>[E,C][E,B,] [B,,A,][C,G,][B,,B,] | [E,B,]3 [E,G,]2 [E,B,] | %16
 [B,,A,]>[B,,A,][B,,F,] [B,,F,][B,,B,][B,,A,] |] [E,G,]3- [E,G,]2 |] %18
V:4
 x | x6 | x6 | x6 | x6 | x6 | x6 | x6 | x5 || x | x6 | x6 | A,3/2 x9/2 | x12 | x6 | x6 | x6 |] %17
 x5 |] %18

